X: 404
T: He yikou liangshui niangjiaxi hau
L: 1/8
M: 2/4
K: G
B2B A [I:setbarnb 1]| 
GA2B | 
d e d B | 
A4 | 
B2B A | 
GA2B | 
A G E E | 
D4 |]

@@@ Tune index: 9278
